src/lib/packages/icons/src/assets/line/shopping-bag-alt.svg

<svg width="24" height="24" viewBox="0 0 24 24" fill="none" xmlns="http://www.w3.org/2000/svg">
<path d="M21.063 10.645C20.873 8.646 19.3369 7.25 17.3299 7.25H16.75V7C16.75 4.381 14.619 2.25 12 2.25C9.38097 2.25 7.24997 4.381 7.24997 7V7.25H6.67001C4.66201 7.25 3.12698 8.646 2.93698 10.645L2.26998 17.645C2.16398 18.767 2.48991 19.809 3.18991 20.579C3.87791 21.335 4.87692 21.751 6.00192 21.751H17.998C19.124 21.751 20.123 21.334 20.81 20.579C21.51 19.809 21.8359 18.767 21.7299 17.646L21.063 10.645ZM8.74997 7C8.74997 5.208 10.208 3.75 12 3.75C13.792 3.75 15.25 5.208 15.25 7V7.25H8.74997V7ZM19.6999 19.568C19.2949 20.014 18.706 20.25 17.998 20.25H6.00192C5.29392 20.25 4.70501 20.015 4.30001 19.568C3.88801 19.115 3.697 18.482 3.764 17.786L4.431 10.787C4.546 9.568 5.44701 8.75 6.67001 8.75H17.3299C18.5539 8.75 19.4539 9.568 19.5689 10.787L20.2359 17.787C20.3029 18.482 20.1119 19.115 19.6999 19.568ZM9.01998 12C9.01998 12.552 8.57298 13 8.01998 13C7.46798 13 7.01498 12.552 7.01498 12C7.01498 11.448 7.45797 11 8.00997 11H8.01998C8.57198 11 9.01998 11.448 9.01998 12ZM17.02 12C17.02 12.552 16.573 13 16.02 13C15.468 13 15.015 12.552 15.015 12C15.015 11.448 15.458 11 16.01 11H16.02C16.572 11 17.02 11.448 17.02 12Z" fill="currentColor"/>
</svg>

<svg xmlns="http://www.w3.org/2000/svg" width="24" height="24" fill="none"><path fill="currentColor" d="M21.063 10.645c-.19-1.999-1.726-3.395-3.733-3.395h-.58V7A4.756 4.756 0 0 0 12 2.25 4.756 4.756 0 0 0 7.25 7v.25h-.58c-2.008 0-3.543 1.396-3.733 3.395l-.667 7c-.106 1.122.22 2.164.92 2.934.688.756 1.687 1.172 2.812 1.172h11.996c1.126 0 2.125-.417 2.812-1.172.7-.77 1.026-1.812.92-2.933l-.667-7.001ZM8.75 7A3.254 3.254 0 0 1 12 3.75 3.254 3.254 0 0 1 15.25 7v.25h-6.5V7ZM19.7 19.568c-.405.446-.994.682-1.702.682H6.002c-.708 0-1.297-.235-1.702-.682-.412-.453-.603-1.086-.536-1.782l.667-6.999C4.546 9.568 5.447 8.75 6.67 8.75h10.66c1.224 0 2.124.818 2.239 2.037l.667 7c.067.695-.124 1.328-.536 1.781ZM9.02 12a1 1 0 0 1-1 1 1.005 1.005 0 0 1-1.005-1c0-.552.443-1 .995-1h.01a1 1 0 0 1 1 1Zm8 0a1 1 0 0 1-1 1 1.005 1.005 0 0 1-1.005-1c0-.552.443-1 .995-1h.01a1 1 0 0 1 1 1Z"/></svg>
